src/lib/packages/icons/src/assets/filled/edit.svg

<svg width="24" height="24" viewBox="0 0 24 24" fill="none" xmlns="http://www.w3.org/2000/svg">
<path d="M16 21.75H6C3.582 21.75 2.25 20.418 2.25 18V8.00001C2.25 5.58201 3.582 4.25001 6 4.25001H9C9.414 4.25001 9.75 4.58601 9.75 5.00001C9.75 5.41401 9.414 5.75001 9 5.75001H6C4.423 5.75001 3.75 6.42301 3.75 8.00001V18C3.75 19.577 4.423 20.25 6 20.25H16C17.577 20.25 18.25 19.577 18.25 18V15C18.25 14.586 18.586 14.25 19 14.25C19.414 14.25 19.75 14.586 19.75 15V18C19.75 20.418 18.418 21.75 16 21.75ZM20.58 5.03001L18.97 3.42002C18.4 2.86002 17.49 2.86 16.92 3.43L15.57 4.79001L19.21 8.43L20.57 7.07999C21.14 6.50999 21.14 5.60001 20.58 5.03001ZM14.51 5.85001L8 12.39V16H11.61L18.15 9.49L14.51 5.85001Z" fill="currentColor"/>
</svg>

<svg xmlns="http://www.w3.org/2000/svg" width="24" height="24" fill="none"><path fill="currentColor" d="M16 21.75H6c-2.418 0-3.75-1.332-3.75-3.75V8c0-2.418 1.332-3.75 3.75-3.75h3a.75.75 0 0 1 0 1.5H6c-1.577 0-2.25.673-2.25 2.25v10c0 1.577.673 2.25 2.25 2.25h10c1.577 0 2.25-.673 2.25-2.25v-3a.75.75 0 0 1 1.5 0v3c0 2.418-1.332 3.75-3.75 3.75Zm4.58-16.72-1.61-1.61c-.57-.56-1.48-.56-2.05.01l-1.35 1.36 3.64 3.64 1.36-1.35c.57-.57.57-1.48.01-2.05Zm-6.07.82L8 12.39V16h3.61l6.54-6.51-3.64-3.64Z"/></svg>
